img/logo.svg

<svg width="112" height="31" viewBox="0 0 112 31" fill="none" xmlns="http://www.w3.org/2000/svg">
<path d="M18.38 24.6V30H0.82V0.86H7.58V24.6H18.38ZM49.7325 15.42C49.7325 17.5267 49.3658 19.4867 48.6325 21.3C47.9125 23.1133 46.8925 24.6933 45.5725 26.04C44.2525 27.3733 42.6592 28.42 40.7925 29.18C38.9392 29.94 36.8792 30.32 34.6125 30.32C32.3458 30.32 30.2792 29.94 28.4125 29.18C26.5458 28.42 24.9458 27.3733 23.6125 26.04C22.2925 24.6933 21.2658 23.1133 20.5325 21.3C19.8125 19.4867 19.4525 17.5267 19.4525 15.42C19.4525 13.3133 19.8125 11.3533 20.5325 9.54C21.2658 7.72667 22.2925 6.15333 23.6125 4.82C24.9458 3.48667 26.5458 2.44 28.4125 1.68C30.2792 0.919999 32.3458 0.539999 34.6125 0.539999C36.8792 0.539999 38.9392 0.926665 40.7925 1.7C42.6592 2.46 44.2525 3.50667 45.5725 4.84C46.8925 6.17333 47.9125 7.74666 48.6325 9.56C49.3658 11.3733 49.7325 13.3267 49.7325 15.42ZM42.8125 15.42C42.8125 13.98 42.6258 12.6867 42.2525 11.54C41.8792 10.38 41.3392 9.4 40.6325 8.6C39.9392 7.8 39.0858 7.18667 38.0725 6.76C37.0592 6.33333 35.9058 6.12 34.6125 6.12C33.3058 6.12 32.1392 6.33333 31.1125 6.76C30.0992 7.18667 29.2392 7.8 28.5325 8.6C27.8392 9.4 27.3058 10.38 26.9325 11.54C26.5592 12.6867 26.3725 13.98 26.3725 15.42C26.3725 16.8733 26.5592 18.18 26.9325 19.34C27.3058 20.4867 27.8392 21.46 28.5325 22.26C29.2392 23.06 30.0992 23.6733 31.1125 24.1C32.1392 24.5133 33.3058 24.72 34.6125 24.72C35.9058 24.72 37.0592 24.5133 38.0725 24.1C39.0858 23.6733 39.9392 23.06 40.6325 22.26C41.3392 21.46 41.8792 20.4867 42.2525 19.34C42.6258 18.18 42.8125 16.8733 42.8125 15.42ZM67.7106 14.9H78.0706V27.2C76.5773 28.2933 74.984 29.0867 73.2906 29.58C71.6106 30.0733 69.8506 30.32 68.0106 30.32C65.6106 30.32 63.424 29.9467 61.4506 29.2C59.4906 28.44 57.8106 27.4 56.4106 26.08C55.0106 24.7467 53.9306 23.1733 53.1706 21.36C52.4106 19.5333 52.0306 17.5533 52.0306 15.42C52.0306 13.2467 52.3906 11.2533 53.1106 9.44C53.8306 7.61333 54.8573 6.04 56.1906 4.72C57.5373 3.4 59.1573 2.37333 61.0506 1.64C62.9573 0.906665 65.084 0.539999 67.4306 0.539999C68.644 0.539999 69.784 0.639999 70.8506 0.839999C71.9173 1.04 72.8973 1.31333 73.7906 1.66C74.6973 2.00667 75.524 2.42 76.2706 2.9C77.0173 3.38 77.684 3.9 78.2706 4.46L76.3106 7.44C76.004 7.90667 75.604 8.19333 75.1106 8.3C74.6306 8.40667 74.1106 8.28667 73.5506 7.94C73.0173 7.62 72.5106 7.34667 72.0306 7.12C71.564 6.88 71.084 6.68667 70.5906 6.54C70.0973 6.39333 69.5773 6.28667 69.0306 6.22C68.484 6.15333 67.8706 6.12 67.1906 6.12C65.924 6.12 64.784 6.34667 63.7706 6.8C62.7573 7.24 61.8906 7.86666 61.1706 8.68C60.464 9.49333 59.9173 10.4733 59.5306 11.62C59.144 12.7533 58.9506 14.02 58.9506 15.42C58.9506 16.9667 59.164 18.34 59.5906 19.54C60.0173 20.74 60.6173 21.7533 61.3906 22.58C62.1773 23.4067 63.1106 24.04 64.1906 24.48C65.284 24.9067 66.4906 25.12 67.8106 25.12C68.624 25.12 69.3573 25.04 70.0106 24.88C70.6773 24.72 71.324 24.5067 71.9506 24.24V19.82H69.0706C68.644 19.82 68.3106 19.7067 68.0706 19.48C67.8306 19.2533 67.7106 18.9667 67.7106 18.62V14.9ZM111.217 15.42C111.217 17.5267 110.85 19.4867 110.117 21.3C109.397 23.1133 108.377 24.6933 107.057 26.04C105.737 27.3733 104.144 28.42 102.277 29.18C100.424 29.94 98.3635 30.32 96.0969 30.32C93.8302 30.32 91.7635 29.94 89.8969 29.18C88.0302 28.42 86.4302 27.3733 85.0969 26.04C83.7769 24.6933 82.7502 23.1133 82.0169 21.3C81.2969 19.4867 80.9369 17.5267 80.9369 15.42C80.9369 13.3133 81.2969 11.3533 82.0169 9.54C82.7502 7.72667 83.7769 6.15333 85.0969 4.82C86.4302 3.48667 88.0302 2.44 89.8969 1.68C91.7635 0.919999 93.8302 0.539999 96.0969 0.539999C98.3635 0.539999 100.424 0.926665 102.277 1.7C104.144 2.46 105.737 3.50667 107.057 4.84C108.377 6.17333 109.397 7.74666 110.117 9.56C110.85 11.3733 111.217 13.3267 111.217 15.42ZM104.297 15.42C104.297 13.98 104.11 12.6867 103.737 11.54C103.364 10.38 102.824 9.4 102.117 8.6C101.424 7.8 100.57 7.18667 99.5569 6.76C98.5435 6.33333 97.3902 6.12 96.0969 6.12C94.7902 6.12 93.6235 6.33333 92.5969 6.76C91.5835 7.18667 90.7235 7.8 90.0169 8.6C89.3235 9.4 88.7902 10.38 88.4169 11.54C88.0435 12.6867 87.8569 13.98 87.8569 15.42C87.8569 16.8733 88.0435 18.18 88.4169 19.34C88.7902 20.4867 89.3235 21.46 90.0169 22.26C90.7235 23.06 91.5835 23.6733 92.5969 24.1C93.6235 24.5133 94.7902 24.72 96.0969 24.72C97.3902 24.72 98.5435 24.5133 99.5569 24.1C100.57 23.6733 101.424 23.06 102.117 22.26C102.824 21.46 103.364 20.4867 103.737 19.34C104.11 18.18 104.297 16.8733 104.297 15.42Z" fill="#000746"/>
</svg>

<svg width="112" height="31" fill="none" xmlns="http://www.w3.org/2000/svg"><path d="M18.38 24.6V30H.82V.86h6.76V24.6h10.8Zm31.353-9.18c0 2.107-.367 4.067-1.1 5.88a14.154 14.154 0 0 1-3.06 4.74c-1.32 1.333-2.914 2.38-4.78 3.14-1.854.76-3.914 1.14-6.18 1.14-2.267 0-4.334-.38-6.2-1.14-1.867-.76-3.467-1.807-4.8-3.14a14.413 14.413 0 0 1-3.08-4.74c-.72-1.813-1.08-3.773-1.08-5.88 0-2.107.36-4.067 1.08-5.88.733-1.813 1.76-3.387 3.08-4.72 1.333-1.333 2.933-2.38 4.8-3.14 1.866-.76 3.933-1.14 6.2-1.14 2.266 0 4.326.387 6.18 1.16 1.866.76 3.46 1.807 4.78 3.14 1.32 1.333 2.34 2.907 3.06 4.72.733 1.813 1.1 3.767 1.1 5.86Zm-6.92 0c0-1.44-.187-2.733-.56-3.88-.374-1.16-.914-2.14-1.62-2.94a6.854 6.854 0 0 0-2.56-1.84c-1.014-.427-2.167-.64-3.46-.64-1.307 0-2.474.213-3.5.64a7.035 7.035 0 0 0-2.58 1.84c-.694.8-1.227 1.78-1.6 2.94-.374 1.147-.56 2.44-.56 3.88 0 1.453.186 2.76.56 3.92.373 1.147.906 2.12 1.6 2.92a7.035 7.035 0 0 0 2.58 1.84c1.026.413 2.193.62 3.5.62 1.293 0 2.446-.207 3.46-.62a6.854 6.854 0 0 0 2.56-1.84c.706-.8 1.246-1.773 1.62-2.92.373-1.16.56-2.467.56-3.92Zm24.898-.52h10.36v12.3c-1.494 1.093-3.087 1.887-4.78 2.38-1.68.493-3.44.74-5.28.74-2.4 0-4.587-.373-6.56-1.12-1.96-.76-3.64-1.8-5.04-3.12a13.818 13.818 0 0 1-3.24-4.72c-.76-1.827-1.14-3.807-1.14-5.94 0-2.173.36-4.167 1.08-5.98.72-1.827 1.746-3.4 3.08-4.72 1.346-1.32 2.966-2.347 4.86-3.08 1.906-.733 4.033-1.1 6.38-1.1 1.213 0 2.353.1 3.42.3 1.066.2 2.046.473 2.94.82.906.347 1.733.76 2.48 1.24.746.48 1.413 1 2 1.56l-1.96 2.98c-.307.467-.707.753-1.2.86-.48.107-1-.013-1.56-.36-.534-.32-1.04-.593-1.52-.82a8.335 8.335 0 0 0-1.44-.58 9.502 9.502 0 0 0-1.56-.32c-.547-.067-1.16-.1-1.84-.1-1.267 0-2.407.227-3.42.68a7.322 7.322 0 0 0-2.6 1.88c-.707.813-1.254 1.793-1.64 2.94-.387 1.133-.58 2.4-.58 3.8 0 1.547.213 2.92.64 4.12.426 1.2 1.026 2.213 1.8 3.04a7.965 7.965 0 0 0 2.8 1.9c1.093.427 2.3.64 3.62.64.813 0 1.546-.08 2.2-.24.666-.16 1.313-.373 1.94-.64v-4.42h-2.88c-.427 0-.76-.113-1-.34a1.132 1.132 0 0 1-.36-.86V14.9Zm43.506.52c0 2.107-.367 4.067-1.1 5.88a14.154 14.154 0 0 1-3.06 4.74c-1.32 1.333-2.913 2.38-4.78 3.14-1.853.76-3.913 1.14-6.18 1.14s-4.334-.38-6.2-1.14c-1.867-.76-3.467-1.807-4.8-3.14a14.413 14.413 0 0 1-3.08-4.74c-.72-1.813-1.08-3.773-1.08-5.88 0-2.107.36-4.067 1.08-5.88.733-1.813 1.76-3.387 3.08-4.72 1.333-1.333 2.933-2.38 4.8-3.14C91.763.92 93.83.54 96.097.54c2.267 0 4.327.387 6.18 1.16 1.867.76 3.46 1.807 4.78 3.14 1.32 1.333 2.34 2.907 3.06 4.72.733 1.813 1.1 3.767 1.1 5.86Zm-6.92 0c0-1.44-.187-2.733-.56-3.88-.373-1.16-.913-2.14-1.62-2.94a6.853 6.853 0 0 0-2.56-1.84c-1.014-.427-2.167-.64-3.46-.64-1.307 0-2.473.213-3.5.64a7.033 7.033 0 0 0-2.58 1.84c-.694.8-1.227 1.78-1.6 2.94-.374 1.147-.56 2.44-.56 3.88 0 1.453.186 2.76.56 3.92.373 1.147.906 2.12 1.6 2.92a7.034 7.034 0 0 0 2.58 1.84c1.027.413 2.193.62 3.5.62 1.293 0 2.447-.207 3.46-.62a6.854 6.854 0 0 0 2.56-1.84c.707-.8 1.247-1.773 1.62-2.92.373-1.16.56-2.467.56-3.92Z" fill="#000746"/></svg>
